X: 39990
T: Three Guid Fellows Doon In Yon Glen
R: slip jig
M: 9/8
K: Amixolydian
|:ecA Bce edc|dBG ABd dcB|ecA Bce edc|1 dcB BeG A2d:|2 dcB BeG A2 z||
~a3 Ace agf|~g3 GB/c/d gfe|~a3 Ace agf|edc BeG A2^g|
~a3 Ace agf|~g3 GB/c/d g3|agf gfe edc|dcB BeG A2d||

